images_sukapura_svg/cmd/lc_flowchartshapes.flowchart-multidocument.svg

<svg viewBox="0 0 24 24" xmlns="http://www.w3.org/2000/svg" xmlns:xlink="http://www.w3.org/1999/xlink"><linearGradient id="a" gradientUnits="userSpaceOnUse" x1="11.966103" x2="11.627119" y1="20.644068" y2="3.254238"><stop offset="0" stop-color="#e5eefc"/><stop offset="1" stop-color="#fcfdff"/></linearGradient><path d="m4 6v1.4275113 7.7130137 1.285502c3.5899749 4.078513 5.731184 2.718709 9.296875 0 2.580321-1.629631 3.735167-2.32483 5.703125-2.571004v-1.84791-1.285502-3.2940997-1.4275113h-11.25-1.25z" fill="#0a84ff"/><path d="m7 3v1.2851562 1.7148438h.5 10.5.5.5v.5.5 4.435547c.812377-.37421 2.061514-.605161 3-.722656v-6.4277348-1.2851562zm-2 4v1l-3 .1425781v1.2851563 7.7128906 1.285156c3.5899749 4.078513 5.7311838 2.718709 9.296875 0 2.580321-1.629631 3.735167-2.324138 5.703125-2.570312v-2.541015c.328134-.128308.657638-.230751 1-.314454v-6h-10.5-.5-.5z" fill="url(#a)"/><path d="m7 3v1 2h1v-2h13v.2851562 5.5351563c-.640662.1260389-1.341155.3258415-2 .5761715v1.054688l.003906.009766c.986087-.413886 2.295743-.740086 2.996094-.775391v-.3125-.189453-5.8984378-1.2851562zm-5 5v1.4277344 7.7128906 1.285156c3.5899749 4.078513 5.7311838 2.718709 9.296875 0 2.580321-1.629631 3.735167-2.324138 5.703125-2.570312v-7.8476565-.0078125h-12.5zm1 1h1.5 11.5v6.119141c-1.665061.373923-3.041684 1.074885-5.236328 2.460937l-.03711.023438-.035156.027343c-1.7700119 1.349591-3.1106697 2.227725-4.1523435 2.351563-.9808423.116606-2.0128653-.349182-3.5390625-1.998047v-.84375-7.7128906z" fill="#0a84ff"/></svg>

<?xml version="1.0" encoding="UTF-8" standalone="no"?>
<svg
   xmlns:dc="http://purl.org/dc/elements/1.1/"
   xmlns:cc="http://creativecommons.org/ns#"
   xmlns:rdf="http://www.w3.org/1999/02/22-rdf-syntax-ns#"
   xmlns:svg="http://www.w3.org/2000/svg"
   xmlns="http://www.w3.org/2000/svg"
   xmlns:xlink="http://www.w3.org/1999/xlink"
   xmlns:sodipodi="http://sodipodi.sourceforge.net/DTD/sodipodi-0.dtd"
   xmlns:inkscape="http://www.inkscape.org/namespaces/inkscape"
   viewBox="0 0 24 24"
   version="1.1"
   id="svg8"
   sodipodi:docname="lc_flowchartshapes.flowchart-multidocument.svg"
   inkscape:version="0.92.3 (2405546, 2018-03-11)">
  <metadata
     id="metadata14">
    <rdf:RDF>
      <cc:Work
         rdf:about="">
        <dc:format>image/svg+xml</dc:format>
        <dc:type
           rdf:resource="http://purl.org/dc/dcmitype/StillImage" />
        <dc:title></dc:title>
      </cc:Work>
    </rdf:RDF>
  </metadata>
  <defs
     id="defs12">
    <linearGradient
       gradientTransform="translate(-22.576271,-6.6101693)"
       id="a"
       gradientUnits="userSpaceOnUse"
       x1="12"
       x2="12"
       y1="21.5"
       y2="2.5">
      <stop
         offset="0"
         stop-color="#e5eefc"
         id="stop1020" />
      <stop
         offset="1"
         stop-color="#fcfdff"
         id="stop1022" />
    </linearGradient>
    <linearGradient
       inkscape:collect="always"
       xlink:href="#a"
       id="linearGradient839"
       x1="14.81356"
       y1="19.830509"
       x2="12.033898"
       y2="3.7627118"
       gradientUnits="userSpaceOnUse" />
  </defs>
  <sodipodi:namedview
     pagecolor="#ffffff"
     bordercolor="#666666"
     borderopacity="1"
     objecttolerance="10"
     gridtolerance="10"
     guidetolerance="10"
     inkscape:pageopacity="0"
     inkscape:pageshadow="2"
     inkscape:window-width="1366"
     inkscape:window-height="716"
     id="namedview10"
     showgrid="true"
     inkscape:zoom="10"
     inkscape:cx="21.521898"
     inkscape:cy="7.6761385"
     inkscape:window-x="-8"
     inkscape:window-y="-8"
     inkscape:window-maximized="1"
     inkscape:current-layer="svg8">
    <inkscape:grid
       type="xygrid"
       id="grid841" />
  </sodipodi:namedview>
  <path
     d="m4 6v1.4275113 7.7130137 1.285502c3.5899749 4.078513 5.731184 2.718709 9.296875 0 2.580321-1.629631 3.735167-2.32483 5.703125-2.571004v-1.84791-1.285502-3.2940997-1.4275113h-11.25-1.25z"
     fill="#4d82b8"
     id="path2"
     style="fill:#0a84ff;fill-opacity:1" />
  <path
     style="fill:url(#linearGradient839);fill-opacity:1"
     d="M 7,3 V 4.2851562 6 H 7.5 18 18.5 19 V 6.5 7 11.435547 c 0.812377,-0.37421 2.061514,-0.605161 3,-0.722656 V 4.2851562 3 Z M 5,7 V 8 L 2,8.1425781 v 1.2851563 7.7128906 1.285156 c 3.5899749,4.078513 5.7311838,2.718709 9.296875,0 C 13.877196,16.79615 15.032042,16.101643 17,15.855469 V 13.314454 C 17.328134,13.186146 17.657638,13.083703 18,13 V 7 H 7.5 7 6.5 Z"
     id="path4"
     inkscape:connector-curvature="0"
     sodipodi:nodetypes="ccccccccccccccccccccccccccccc" />
  <path
     d="m7 3v1 2h1v-2h13v .2851562 5.5351563c-.640662.1260389-1.341155.3258415-2 .5761715v1.054688l.003906.009766c.986087-.413886 2.295743-.740086 2.996094-.775391v-.3125-.189453-5.8984378-1.2851562zm-5 5v1.4277344 7.7128906 1.285156c3.5899749 4.078513 5.7311838 2.718709 9.296875 0 2.580321-1.629631 3.735167-2.324138 5.703125-2.570312v-7.8476565-.0078125h-12.5zm1 1h1.5 11.5v6.119141c-1.665061.373923-3.041684 1.074885-5.236328 2.460937l-.03711.023438-.035156.027343c-1.7700119 1.349591-3.1106697 2.227725-4.1523435 2.351563-.9808423.116606-2.0128653-.349182-3.5390625-1.998047v-.84375-7.7128906z"
     fill="#808080"
     id="path6"
     style="fill:#0a84ff;fill-opacity:1" />
</svg>
